assets/icons/starOutline.svg

<svg width="20" height="20" viewBox="0 0 20 20" fill="none" xmlns="http://www.w3.org/2000/svg">
<path d="M11.6422 1.87197L13.314 5.24323C13.542 5.71252 14.1499 6.16266 14.6629 6.24886L17.693 6.75646C19.6308 7.0821 20.0868 8.49957 18.6904 9.89787L16.3347 12.2731C15.9357 12.6753 15.7173 13.4511 15.8407 14.0066L16.5152 16.9469C17.0471 19.2742 15.8217 20.1745 13.7795 18.9581L10.9393 17.2629C10.4264 16.9565 9.58098 16.9565 9.05848 17.2629L6.21833 18.9581C4.18555 20.1745 2.95069 19.2646 3.48263 16.9469L4.15706 14.0066C4.28054 13.4511 4.06207 12.6753 3.66311 12.2731L1.30737 9.89787C-0.0794738 8.49957 0.366979 7.0821 2.30476 6.75646L5.33492 6.24886C5.83837 6.16266 6.4463 5.71252 6.67427 5.24323L8.34607 1.87197C9.25798 0.0426772 10.7398 0.0426772 11.6422 1.87197Z" stroke="#E9D926" stroke-linecap="round" stroke-linejoin="round"/>
</svg>

<svg xmlns="http://www.w3.org/2000/svg" width="20" height="20" fill="none" viewBox="0 0 20 20"><path stroke="#e9d926" stroke-linecap="round" stroke-linejoin="round" d="m11.642 1.872 1.672 3.371c.228.47.836.92 1.349 1.006l3.03.507c1.938.326 2.394 1.744.997 3.142l-2.355 2.375c-.4.402-.618 1.178-.494 1.734l.674 2.94c.532 2.327-.693 3.227-2.735 2.011l-2.84-1.695c-.514-.307-1.359-.307-1.882 0l-2.84 1.695c-2.032 1.217-3.267.307-2.735-2.011l.674-2.94c.124-.556-.095-1.332-.494-1.734L1.307 9.898C-.079 8.5.367 7.082 2.305 6.756l3.03-.507c.503-.086 1.111-.536 1.34-1.006l1.671-3.371c.912-1.83 2.394-1.83 3.296 0"/></svg>
